img/lab-logo-text.svg

<svg fill="none" height="16" viewBox="0 0 44 16" width="44" xmlns="http://www.w3.org/2000/svg"><g fill="#008699"><path d="m.268163 15.2049c-.2346668 0-.3153335-.1173-.2420002-.352l4.5099972-13.81598c.05867-.161332.176-.241998.352-.241998h3.916c.176 0 .29334.080666.352.241998l4.53204 13.81598c.0293.1027.022.1907-.022.264-.0294.0587-.1027.088-.22.088h-3.3c-.1907 0-.30804-.0806-.35204-.242-1.19291-3.6796-1.8572-5.79814-2.948-9.4629h-.044c-1.08656 3.73658-1.71494 5.7743-2.904 9.4409-.044.176-.16133.264-.352.264z"/><path d="m15.981 15.2049c-.2347 0-.3154-.1173-.242-.352l4.576-13.81598c.0586-.161332.176-.241998.352-.241998h3.916c.176 0 .2933.080666.352.241998l4.598 13.81598c.0293.1027.022.1907-.022.264-.0294.0587-.1027.088-.22.088h-3.3c-.1907 0-.308-.0806-.352-.242-1.2601-3.6432-1.9141-5.69886-3.014-9.40626h-.044c-1.1194 3.66587-1.7735 5.73186-2.97 9.38426-.044.176-.1614.264-.352.264zm4.3827-2.574.9067-2.83798 2.6394-.0187.9328 2.85668z"/><path d="m32.715 15.2049c-.2053 0-.308-.1026-.308-.308v-13.79398c0-.205331.1027-.307998.308-.307998h9.064c.1907 0 .286.102667.286.307998v2.53c0 .20534-.0953.308-.286.308h-5.742v2.046h1.914c1.9654 0 3.3954.374 4.29 1.122.9094.73334 1.364 1.79667 1.364 3.18998 0 1.0707-.2053 1.9727-.616 2.706-.396.7334-1.0266 1.2834-1.892 1.65-.8653.3667-1.9873.55-3.366.55zm3.322-2.926h1.694c.748 0 1.3127-.1393 1.694-.418.3814-.2786.572-.7553.572-1.43 0-.64531-.1833-1.09265-.55-1.34198-.3666-.264-.924-.396-1.672-.396h-1.738z"/></g></svg>

<svg width="44" height="16" viewBox="0 0 44 16" fill="none" xmlns="http://www.w3.org/2000/svg">
<path d="M0.268163 15.2049C0.0334962 15.2049 -0.0471705 15.0876 0.0261628 14.8529L4.53616 1.03692C4.59483 0.875588 4.71216 0.794922 4.88816 0.794922H8.80416C8.98016 0.794922 9.0975 0.875588 9.15616 1.03692L13.6882 14.8529C13.7175 14.9556 13.7102 15.0436 13.6662 15.1169C13.6368 15.1756 13.5635 15.2049 13.4462 15.2049H10.1462C9.9555 15.2049 9.83816 15.1243 9.79416 14.9629C8.60125 11.2833 7.93696 9.16476 6.84616 5.5H6.80216C5.7156 9.23658 5.08722 11.2743 3.89816 14.9409C3.85416 15.1169 3.73683 15.2049 3.54616 15.2049H0.268163Z" fill="#008699"/>
<path d="M15.981 15.2049C15.7463 15.2049 15.6656 15.0876 15.739 14.8529L20.315 1.03692C20.3736 0.875588 20.491 0.794922 20.667 0.794922H24.583C24.759 0.794922 24.8763 0.875588 24.935 1.03692L29.533 14.8529C29.5623 14.9556 29.555 15.0436 29.511 15.1169C29.4816 15.1756 29.4083 15.2049 29.291 15.2049H25.991C25.8003 15.2049 25.683 15.1243 25.639 14.9629C24.3789 11.3197 23.7249 9.26404 22.625 5.55664H22.581C21.4616 9.22251 20.8075 11.2885 19.611 14.9409C19.567 15.1169 19.4496 15.2049 19.259 15.2049H15.981ZM20.3637 12.6309L21.2704 9.79292L23.9098 9.77422L24.8426 12.6309H20.3637Z" fill="#008699"/>
<path d="M32.715 15.2049C32.5097 15.2049 32.407 15.1023 32.407 14.8969V1.10292C32.407 0.897589 32.5097 0.794922 32.715 0.794922H41.779C41.9697 0.794922 42.065 0.897589 42.065 1.10292V3.63292C42.065 3.83826 41.9697 3.94092 41.779 3.94092H36.037V5.98692H37.951C39.9164 5.98692 41.3464 6.36092 42.241 7.10892C43.1504 7.84226 43.605 8.90559 43.605 10.2989C43.605 11.3696 43.3997 12.2716 42.989 13.0049C42.593 13.7383 41.9624 14.2883 41.097 14.6549C40.2317 15.0216 39.1097 15.2049 37.731 15.2049H32.715ZM36.037 12.2789H37.731C38.479 12.2789 39.0437 12.1396 39.425 11.8609C39.8064 11.5823 39.997 11.1056 39.997 10.4309C39.997 9.78559 39.8137 9.33825 39.447 9.08892C39.0804 8.82492 38.523 8.69292 37.775 8.69292H36.037V12.2789Z" fill="#008699"/>
</svg>
